!!!OTL: Gangong
!!!ARE: Asia, China,ÿHubei, Zhongxiang
!! I, 432
!!!SCT: C1444
!!!YEM: Copyright 1995, estate of Helmut Schaffrath.
**kern
*ICvox
*Ivox
*M2/4
*k[]
*C:
{4cc
8cc
8a
=1
4cc
8cc
8a
=2
2r
=3
2r}
=4
{8e
8g
8a
8cc
=5
8e
8g
4g
=6
4cc
8a
8g
=7
2g}
=8
{4dd
4ee
=9
4dd
4a
=10
4cc
8dd
8dd
=11
4cc
4cc
=12
8e
8g
4a
=13
2g}
==
!!!AGN: Shange, Tiange, Checaoge
!!!ONB: ESAC (Essen Associative Code) Database: HUANG
!!!AMT: simple duple
!!!AIN: vox
!!!EED: Helmut Schaffrath
!!!EEV: 1.0
*-
